X:29
T:Bourr\'ee de Concours
C:Serge Durin
M:2/4
R:bourr\'ee 2 temps
Q:250
L:1/8
K:Gm
d2^cd|B3A|G>A BG|1AD ED:|2A4:|
D>=E ^FD|G>A BG|1^F>G AG|^F2 D2:|2^F>G AF|G4:|
